X:1
T:Title
%%score { 1 | 2 }
L:1/8
Q:1/4=100
M:4/4
K:D
V:1 treble nm="Grand Piano"
V:2 bass 
V:1
 F2 FF [FA]3 [FA] | [GB][GB][Gc][Fd] [Fd]2 [DA]2 | [CG]2 [CG][CA] [Ec]2 [CGB]2 | %3
w: D.~B.~Towner * * * *|||
 [GB][FA][FA][FB] F4 | A2 AA A3 [FA] |[M:17/16] [GB][GB][Gc][Fd]e-<eB3/2d | %6
w: |||
[M:4/4] d2 [Ad]2 [FA]3 [DB] | [A,DF]2[K:bass] [G,CE]2 [F,D]4 | [DFA]2 [DGB]>[Gc] [Fd]3 [Fd] | %9
w: |||
 [Ge][Ge][Fd][Ad] [Gc]2 [EG]2 | [CG]2 [CE]>[EG] [Ec]3 [EB] | [DB][DA][FA][FB] [DF]4 | %12
w: |||
 [FA]2 [GB]>F A3 A |[M:17/16] BB[Gc][Fd]e-<eB3/2d |[M:4/4] d2 [Ad]2 [FA]3 [DB] | [DF]2 [CE]2 D4 |] %16
w: ||||
V:2
 [D,A,D]2 [D,A,D][D,A,D] [D,D]3 [D,D] | [G,D][G,D][E,A,][D,A,] [D,A,]2 [D,F,]2 | %2
 [A,,E,]2 [A,,E,][A,,F,] [A,,G,]2 A,,2 | [D,D][D,D][D,D][D,D] [D,A,D]4 | %4
 [D,F,D]2 [D,F,D][E,G,D] [F,A,D]3 [D,D] | %5
[M:17/16] [G,D][G,D][E,A,][D,A,][K:treble][G,B,G]-<[G,B,G][G,DG]3/2[^G,B,=F] | %6
[M:4/4] [A,F]2[K:bass] [F,D]2 [D,D]3 [B,,^G,] | A,,2 A,,2 D,4 | D,2 G,>[E,A,] [D,A,]3 [D,A,] | %9
 [C,A,][C,A,][D,A,][F,A,] [E,A,]2 [A,,A,]2 | [A,,A,]2 [A,,A,]>[A,,A,] [A,,G,]3 [A,,G,] | %11
 [D,G,][D,F,][D,D][D,D] [D,A,]4 | [D,D]2 [D,D]>[D,A,D] [D,F,D]3 [D,F,D] | %13
[M:17/16] [G,D][G,E][E,A,][D,A,][K:treble][G,B,G]-<[G,B,G][G,DG]3/2[G,B,=F] | %14
[M:4/4] [A,F]2[K:bass] [F,D]2 [D,D]3 [B,,^G,] | [A,,A,]2 [A,,G,]2 [D,F,]4 |] %16

